images_elementary_svg/cmd/sc_togglebreakpoint.svg

<svg height="16" width="16" xmlns="http://www.w3.org/2000/svg" xmlns:xlink="http://www.w3.org/1999/xlink"><linearGradient id="a" gradientUnits="userSpaceOnUse" x1="7.813952" x2="7.813952" xlink:href="#e" y1="1.282289" y2="14.669971"/><linearGradient id="b" gradientTransform="matrix(.24324325 0 0 -.24324327 -9.448694 14.168118)" gradientUnits="userSpaceOnUse" x1="71.204002" x2="71.204002" xlink:href="#e" y1="6.2376" y2="44.341"/><radialGradient id="c" cx="23.896" cy="3.99" gradientTransform="matrix(0 .41038696 -.54170353 0 10.161398 -5.568732)" gradientUnits="userSpaceOnUse" r="20.396999"><stop offset="0" stop-color="#ed5353"/><stop offset="1" stop-color="#c6262e"/></radialGradient><radialGradient id="d" cx="23.896" cy="3.99" gradientTransform="matrix(0 .87967058 -1.1611496 0 12.63299 -21.084396)" gradientUnits="userSpaceOnUse" r="20.396999"><stop offset="0" stop-color="#fff"/><stop offset=".26238" stop-color="#ddd"/><stop offset=".66093999" stop-color="#abacae"/><stop offset="1" stop-color="#89898b"/></radialGradient><linearGradient id="e"><stop offset="0" stop-color="#fff"/><stop offset=".507761" stop-color="#fff" stop-opacity=".235294"/><stop offset=".83456558" stop-color="#fff" stop-opacity=".156863"/><stop offset="1" stop-color="#fff" stop-opacity=".392157"/></linearGradient><linearGradient id="f" gradientUnits="userSpaceOnUse" x1="7.928443" x2="7.928443" xlink:href="#e" y1="5.416265" y2="10.565373"/><g stroke-linecap="round" stroke-linejoin="round"><path d="m8 .50183c-4.1373 0-7.4982 3.361-7.4982 7.4982 0 4.1373 3.361 7.4982 7.4982 7.4982 4.1373 0 7.4982-3.361 7.4982-7.4982 0-4.1373-3.361-7.4982-7.4982-7.4982z" fill="url(#d)" stroke="#8c8c8c" stroke-width="1.003654"/><path d="m8.0000001 4.5018272c-1.9301424 0-3.498173 1.5680306-3.498173 3.498173s1.5680306 3.4981728 3.498173 3.4981728c1.9301419 0 3.4981729-1.5680304 3.4981729-3.4981728s-1.568031-3.498173-3.4981729-3.498173z" fill="url(#c)" stroke="#b10000" stroke-width="1.003654"/><g fill="none"><path d="m12.5 8.0001291c0-2.4854146-2.014843-4.500129-4.4998713-4.500129-2.4854143 0-4.5001287 2.014843-4.5001287 4.500129 0 2.4852859 2.0147144 4.4998709 4.5001287 4.4998709 2.4850283 0 4.4998713-2.014585 4.4998713-4.4998709z" opacity=".5" stroke="url(#b)"/><path d="m14.5 7.9998c0 3.5902-2.91 6.5002-6.4999 6.5002s-6.5001-2.91-6.5001-6.5002c0-3.5898 2.9102-6.4998 6.5001-6.4998s6.4999 2.91 6.4999 6.4998z" opacity=".8" stroke="url(#a)"/><path d="m10.5 7.999923c0 1.3808461-1.1192309 2.500077-2.4999617 2.500077-1.3807307 0-2.5000383-1.1192309-2.5000383-2.500077 0-1.3806923 1.1193076-2.499923 2.5000383-2.499923 1.3807308 0 2.4999617 1.1192307 2.4999617 2.499923z" opacity=".5" stroke="url(#f)"/></g></g><path d="m9.2617526 8.180847 6.3383084 3.745043-2.322949.640497s1.473849 1.802124 1.473849 1.802124c.520783.833344-.756597 1.501236-1.147185.876228 0 0-1.398327-1.82035-1.398327-1.82035l-1.233198 2.17568z" fill="#e9e9e9" fill-rule="evenodd" stroke="#8c8c8c" stroke-linejoin="round" stroke-width=".8"/></svg>

<svg xmlns="http://www.w3.org/2000/svg" xmlns:xlink="http://www.w3.org/1999/xlink" height="16" width="16"><defs><radialGradient id="g" gradientUnits="userSpaceOnUse" cy="24.149" cx="17.814" gradientTransform="matrix(-1.0867 0 0 1.04168 28.45 -19.52)" r="9.125"><stop offset="0" stop-color="#fff"/><stop offset="1" stop-color="#b6b6b6"/></radialGradient></defs><linearGradient id="e" gradientUnits="userSpaceOnUse" x1="7.814" x2="7.814" xlink:href="#a" y1="1.282" y2="14.67"/><linearGradient id="d" gradientTransform="matrix(.24324 0 0 -.24324 -9.45 14.168)" gradientUnits="userSpaceOnUse" x1="71.204" x2="71.204" xlink:href="#a" y1="6.238" y2="44.341"/><radialGradient id="c" cx="23.896" cy="3.99" gradientTransform="matrix(0 .4104 -.5417 0 10.16 -5.57)" gradientUnits="userSpaceOnUse" r="20.397"><stop offset="0" stop-color="#ed5353"/><stop offset="1" stop-color="#c6262e"/></radialGradient><radialGradient id="b" cx="23.896" cy="3.99" gradientTransform="matrix(0 .87967 -1.16115 0 12.633 -21.084)" gradientUnits="userSpaceOnUse" r="20.397"><stop offset="0" stop-color="#fff"/><stop offset=".262" stop-color="#ddd"/><stop offset=".661" stop-color="#abacae"/><stop offset="1" stop-color="#89898b"/></radialGradient><linearGradient id="a"><stop offset="0" stop-color="#fff"/><stop offset=".508" stop-color="#fff" stop-opacity=".235"/><stop offset=".835" stop-color="#fff" stop-opacity=".157"/><stop offset="1" stop-color="#fff" stop-opacity=".392"/></linearGradient><linearGradient id="f" gradientUnits="userSpaceOnUse" x1="7.928" x2="7.928" xlink:href="#a" y1="5.416" y2="10.565"/><g stroke-linecap="round" stroke-linejoin="round"><path d="M8 .502C3.863.502.502 3.862.502 8c0 4.137 3.36 7.498 7.498 7.498 4.137 0 7.498-3.36 7.498-7.498 0-4.137-3.36-7.498-7.498-7.498z" fill="url(#b)" stroke="#8c8c8c" stroke-width="1.004"/><path d="M8 4.502C6.07 4.502 4.502 6.07 4.502 8S6.07 11.498 8 11.498c1.93 0 3.498-1.568 3.498-3.498S9.93 4.502 8 4.502z" fill="url(#c)" stroke="#b10000" stroke-width="1.004"/><g fill="none"><path d="M12.5 8c0-2.485-2.015-4.5-4.5-4.5S3.5 5.515 3.5 8s2.015 4.5 4.5 4.5 4.5-2.015 4.5-4.5z" opacity=".5" stroke="url(#d)"/><path d="M14.5 8c0 3.59-2.91 6.5-6.5 6.5S1.5 11.59 1.5 8 4.41 1.5 8 1.5s6.5 2.91 6.5 6.5z" opacity=".8" stroke="url(#e)"/><path d="M10.5 8c0 1.38-1.12 2.5-2.5 2.5S5.5 9.38 5.5 8 6.62 5.5 8 5.5s2.5 1.12 2.5 2.5z" opacity=".5" stroke="url(#f)"/></g></g><path d="M8.63 4.697l6.986 6.782-3.185.1 1.337 2.775c.41 1.233-1.438 1.695-1.746.77l-1.233-2.774-2.26 2.416.102-10.07z" fill="url(#g)" fill-rule="evenodd"/><path d="M9.4 6.533l4.404 4.245-2.538.072 1.627 3.484c.267.47-.063.75-.224.324l-1.697-3.602-1.636 1.727.064-6.25z" opacity=".4" fill="none" stroke="#fff"/><path d="M8.63 4.697l6.986 6.782-3.185.1 1.337 2.775c.41 1.233-1.438 1.695-1.746.77l-1.233-2.774-2.26 2.416.102-10.07z" opacity=".66" fill="none" stroke="#666" stroke-linejoin="round"/></svg>
